X:15420
T:Siege of Ennis, The
M:2/4
L:1/8
S:Eileen Ni Riordan
R:polka
Z:id:hn-polka-5
K:A
E>F EC|EF A>B|ce Bc/B/|AF dF|E>F EC|EF A>B|ce Bc/B/|1 A2 AF:|2 A2 AB||
ce ec|df fe|ce Bc/B/|AF dF|ce ec|df fg|af g/f/e|f2 fg|
af g/f/e|f/g/f/e/ cB|ce Bc/B/|AF dF|E>F EC|EF A>B|ce Bc/B/|A2 AB||
|:ce ce|ce ec/e/|fe ce|f/a/f/e/ cB| ce ce|ce ec/e/|fe cB|1 c/B/A
A>B:|2 c/B/A A2||
|:Ac ed/e/|fe d>e|ec AB|cB c/B/A|Ac ed/e/|fe d>e|ec AF|1 FE E2:|2 FE EC|
|
